X: 159
T: Sullivan’s Hollow
C:Trad arr. \251 2018 Ben Paley
B: canberra pickers and fiddlers
B: old time tunes update
B: tunes
M:C|
L:1/8
R: Reel
Q: 1/4=104
K:D
V:1 
e2 [|: f4 fede | fa2f e2d2 | fefa fede - |[1 edBA B2A2 :|[2 edBA B2Ad - ||
|| dfed B2Ad - | dfed B2A2 | F3E F2Ad - | dfed B2Ad - | dfed B2A2 |
|[1 D6 f2 | a3f egfe | d6 Ad :|
|[2 F4 FEDE | F8 | F4 FEFG | A6 f2 | a3f egfe | d6 |]
% abcbook-tune_id 67a7d9ec41545aef3de72857
% abcbook-tune_composer_id 
% abcbook-link-0 https://www.youtube.com/watch?v=tlkGMpIFkL4
% abcbook-link-title-0 Sullivan&#39;s Hollow  Janie Rothfield and Hilarie Burhans
% abcbook-link-start-at-0 51
% abcbook-boost 0
% abcbook-difficulty 0
% abcbook-tags old time tunes
% abcbook-tablature 
% abcbook-transpose 
% abcbook-tuning ADAE
% abcbook-lastupdated 1739099596704
% abcbook-src-url 
% abcbook-soundfonts 
% abcbook-repeats 1


